X:1
T: Pinky House
P: for Sands of Morar (Bk45)
C:Trad.
R:Strathspey
Q: 128
K:D
M:4/4
L:1/16
|:D3E|F3E FA3 F4 E2D2|A3F AB3 A4 d2c2|B3A Bd3 A2F2 E3D|E8 E4 D3E|
F3E FA3 F4 E2D2|A3F AB3 A4 d2c2|B3A B2d2 ((3d2e2f2) e3d|d12:|
|:c3d|e3d e3f e4 d2e2|((3f2e2d2) c2B2 ^A4 B2c2|d3c d3e d4 c4|B12 ((3B2c2d2) |
A3F E2D2 F2A2 B2d2|AF3 E3D G,4 f3e|d3c ((3B2c2d2) AF3 E3D|D12:|
